images/16759070.svg

<?xml version="1.0" encoding="UTF-8"?>
<svg xmlns="http://www.w3.org/2000/svg" xmlns:xlink="http://www.w3.org/1999/xlink" width="300pt" height="300pt" viewBox="0 0 300 300" version="1.1">
<defs>
<g>
<symbol overflow="visible" id="glyph0-0">
<path style="stroke:none;" d="M 0.546875 1.9375 L 0.546875 -7.75 L 6.046875 -7.75 L 6.046875 1.9375 Z M 1.171875 1.328125 L 5.4375 1.328125 L 5.4375 -7.140625 L 1.171875 -7.140625 Z M 1.171875 1.328125 "/>
</symbol>
<symbol overflow="visible" id="glyph0-1">
<path style="stroke:none;" d="M 4.328125 -7.28125 C 3.546875 -7.28125 2.921875 -6.984375 2.453125 -6.390625 C 1.992188 -5.804688 1.765625 -5.007812 1.765625 -4 C 1.765625 -2.988281 1.992188 -2.1875 2.453125 -1.59375 C 2.921875 -1.007812 3.546875 -0.71875 4.328125 -0.71875 C 5.117188 -0.71875 5.742188 -1.007812 6.203125 -1.59375 C 6.660156 -2.1875 6.890625 -2.988281 6.890625 -4 C 6.890625 -5.007812 6.660156 -5.804688 6.203125 -6.390625 C 5.742188 -6.984375 5.117188 -7.28125 4.328125 -7.28125 Z M 4.328125 -8.171875 C 5.453125 -8.171875 6.351562 -7.789062 7.03125 -7.03125 C 7.707031 -6.28125 8.046875 -5.269531 8.046875 -4 C 8.046875 -2.738281 7.707031 -1.726562 7.03125 -0.96875 C 6.351562 -0.21875 5.453125 0.15625 4.328125 0.15625 C 3.203125 0.15625 2.300781 -0.21875 1.625 -0.96875 C 0.957031 -1.71875 0.625 -2.726562 0.625 -4 C 0.625 -5.269531 0.957031 -6.28125 1.625 -7.03125 C 2.300781 -7.789062 3.203125 -8.171875 4.328125 -8.171875 Z M 4.328125 -8.171875 "/>
</symbol>
<symbol overflow="visible" id="glyph0-2">
<path style="stroke:none;" d="M 1.078125 -8.015625 L 2.546875 -8.015625 L 6.09375 -1.3125 L 6.09375 -8.015625 L 7.15625 -8.015625 L 7.15625 0 L 5.6875 0 L 2.125 -6.703125 L 2.125 0 L 1.078125 0 Z M 1.078125 -8.015625 "/>
</symbol>
<symbol overflow="visible" id="glyph0-3">
<path style="stroke:none;" d="M 1.078125 -8.015625 L 2.171875 -8.015625 L 2.171875 -4.734375 L 6.109375 -4.734375 L 6.109375 -8.015625 L 7.1875 -8.015625 L 7.1875 0 L 6.109375 0 L 6.109375 -3.8125 L 2.171875 -3.8125 L 2.171875 0 L 1.078125 0 Z M 1.078125 -8.015625 "/>
</symbol>
</g>
</defs>
<g id="surface52101">
<rect x="0" y="0" width="300" height="300" style="fill:rgb(100%,100%,100%);fill-opacity:1;stroke:none;"/>
<path style="fill:none;stroke-width:1.2;stroke-linecap:butt;stroke-linejoin:miter;stroke:rgb(0%,0%,0%);stroke-opacity:1;stroke-miterlimit:10;" d="M 35.25 130.789062 L 60.851562 131.339844 "/>
<path style="fill:none;stroke-width:1.2;stroke-linecap:butt;stroke-linejoin:miter;stroke:rgb(0%,0%,0%);stroke-opacity:1;stroke-miterlimit:10;" d="M 60.851562 131.339844 L 67.015625 142.5625 "/>
<path style="fill:none;stroke-width:1.2;stroke-linecap:butt;stroke-linejoin:miter;stroke:rgb(100%,0%,0%);stroke-opacity:1;stroke-miterlimit:10;" d="M 67.015625 142.5625 L 73.179688 153.785156 "/>
<path style="fill:none;stroke-width:1.2;stroke-linecap:butt;stroke-linejoin:miter;stroke:rgb(100%,0%,0%);stroke-opacity:1;stroke-miterlimit:10;" d="M 73.179688 153.785156 L 85.980469 154.058594 "/>
<path style="fill:none;stroke-width:1.2;stroke-linecap:butt;stroke-linejoin:miter;stroke:rgb(0%,0%,0%);stroke-opacity:1;stroke-miterlimit:10;" d="M 85.980469 154.058594 L 98.78125 154.335938 "/>
<path style=" stroke:none;fill-rule:nonzero;fill:rgb(100%,100%,100%);fill-opacity:1;" d="M 69.179688 147.285156 L 78.179688 147.285156 L 78.179688 160.285156 L 69.179688 160.285156 Z M 69.179688 147.285156 "/>
<g style="fill:rgb(100%,0%,0%);fill-opacity:1;">
  <use xlink:href="#glyph0-1" x="69.179688" y="157.186523"/>
</g>
<path style="fill:none;stroke-width:1.2;stroke-linecap:butt;stroke-linejoin:miter;stroke:rgb(0%,0%,0%);stroke-opacity:1;stroke-miterlimit:10;" d="M 101.660156 155.226562 L 103.898438 148.003906 "/>
<path style="fill:none;stroke-width:1.2;stroke-linecap:butt;stroke-linejoin:miter;stroke:rgb(100%,0%,0%);stroke-opacity:1;stroke-miterlimit:10;" d="M 103.898438 148.003906 L 106.136719 140.78125 "/>
<path style="fill:none;stroke-width:1.2;stroke-linecap:butt;stroke-linejoin:miter;stroke:rgb(0%,0%,0%);stroke-opacity:1;stroke-miterlimit:10;" d="M 95.90625 153.441406 L 98.144531 146.21875 "/>
<path style="fill:none;stroke-width:1.2;stroke-linecap:butt;stroke-linejoin:miter;stroke:rgb(100%,0%,0%);stroke-opacity:1;stroke-miterlimit:10;" d="M 98.144531 146.21875 L 100.382812 139 "/>
<path style=" stroke:none;fill-rule:nonzero;fill:rgb(0%,0%,0%);fill-opacity:1;" d="M 111.109375 176.78125 L 102.742188 152.160156 L 94.820312 156.507812 Z M 111.109375 176.78125 "/>
<path style=" stroke:none;fill-rule:nonzero;fill:rgb(100%,100%,100%);fill-opacity:1;" d="M 99.261719 133.390625 L 108.261719 133.390625 L 108.261719 146.390625 L 99.261719 146.390625 Z M 99.261719 133.390625 "/>
<g style="fill:rgb(100%,0%,0%);fill-opacity:1;">
  <use xlink:href="#glyph0-1" x="99.261719" y="143.291992"/>
</g>
<path style="fill:none;stroke-width:1.2;stroke-linecap:butt;stroke-linejoin:miter;stroke:rgb(0%,0%,0%);stroke-opacity:1;stroke-miterlimit:10;" d="M 111.109375 176.78125 L 87.496094 186.695312 "/>
<path style="fill:none;stroke-width:1.2;stroke-linecap:butt;stroke-linejoin:miter;stroke:rgb(0%,0%,0%);stroke-opacity:1;stroke-miterlimit:10;" d="M 111.109375 176.78125 L 132.144531 162.175781 "/>
<path style="fill:none;stroke-width:1.2;stroke-linecap:butt;stroke-linejoin:miter;stroke:rgb(0%,0%,0%);stroke-opacity:1;stroke-miterlimit:10;" d="M 127.832031 196.175781 L 111.109375 176.78125 "/>
<path style="fill:none;stroke-width:1.2;stroke-linecap:butt;stroke-linejoin:miter;stroke:rgb(0%,0%,0%);stroke-opacity:1;stroke-miterlimit:10;" d="M 87.496094 186.695312 L 89.625 212.214844 "/>
<path style="fill:none;stroke-width:1.2;stroke-linecap:butt;stroke-linejoin:miter;stroke:rgb(0%,0%,0%);stroke-opacity:1;stroke-miterlimit:10;" d="M 89.625 212.214844 L 114.554688 218.074219 "/>
<path style="fill:none;stroke-width:1.2;stroke-linecap:butt;stroke-linejoin:miter;stroke:rgb(0%,0%,0%);stroke-opacity:1;stroke-miterlimit:10;" d="M 114.554688 218.074219 L 127.832031 196.175781 "/>
<path style="fill:none;stroke-width:1.2;stroke-linecap:butt;stroke-linejoin:miter;stroke:rgb(0%,0%,0%);stroke-opacity:1;stroke-miterlimit:10;" d="M 128.082031 199.179688 L 140.84375 198.113281 "/>
<path style="fill:none;stroke-width:1.2;stroke-linecap:butt;stroke-linejoin:miter;stroke:rgb(100%,0%,0%);stroke-opacity:1;stroke-miterlimit:10;" d="M 140.84375 198.113281 L 153.601562 197.046875 "/>
<path style="fill:none;stroke-width:1.2;stroke-linecap:butt;stroke-linejoin:miter;stroke:rgb(0%,0%,0%);stroke-opacity:1;stroke-miterlimit:10;" d="M 127.582031 193.171875 L 140.339844 192.109375 "/>
<path style="fill:none;stroke-width:1.2;stroke-linecap:butt;stroke-linejoin:miter;stroke:rgb(100%,0%,0%);stroke-opacity:1;stroke-miterlimit:10;" d="M 140.339844 192.109375 L 153.101562 191.042969 "/>
<path style=" stroke:none;fill-rule:nonzero;fill:rgb(100%,100%,100%);fill-opacity:1;" d="M 149.351562 187.542969 L 158.351562 187.542969 L 158.351562 200.542969 L 149.351562 200.542969 Z M 149.351562 187.542969 "/>
<g style="fill:rgb(100%,0%,0%);fill-opacity:1;">
  <use xlink:href="#glyph0-1" x="149.351562" y="197.444336"/>
</g>
<path style="fill:none;stroke-width:1.2;stroke-linecap:butt;stroke-linejoin:miter;stroke:rgb(0%,0%,0%);stroke-opacity:1;stroke-miterlimit:10;" d="M 132.144531 162.175781 L 130.011719 136.65625 "/>
<path style="fill:none;stroke-width:1.2;stroke-linecap:butt;stroke-linejoin:miter;stroke:rgb(0%,0%,0%);stroke-opacity:1;stroke-miterlimit:10;" d="M 132.144531 162.175781 L 143.726562 167.632812 "/>
<path style="fill:none;stroke-width:1.2;stroke-linecap:butt;stroke-linejoin:miter;stroke:rgb(0%,0%,100%);stroke-opacity:1;stroke-miterlimit:10;" d="M 143.726562 167.632812 L 155.308594 173.089844 "/>
<path style="fill:none;stroke-width:1.2;stroke-linecap:butt;stroke-linejoin:miter;stroke:rgb(0%,0%,0%);stroke-opacity:1;stroke-miterlimit:10;" d="M 130.011719 136.65625 L 106.847656 125.742188 "/>
<path style="fill:none;stroke-width:1.2;stroke-linecap:butt;stroke-linejoin:miter;stroke:rgb(0%,0%,0%);stroke-opacity:1;stroke-miterlimit:10;" d="M 130.265625 130.113281 L 111.730469 121.382812 "/>
<path style="fill:none;stroke-width:1.2;stroke-linecap:butt;stroke-linejoin:miter;stroke:rgb(0%,0%,0%);stroke-opacity:1;stroke-miterlimit:10;" d="M 151.050781 122.050781 L 130.011719 136.65625 "/>
<path style="fill:none;stroke-width:1.2;stroke-linecap:butt;stroke-linejoin:miter;stroke:rgb(0%,0%,0%);stroke-opacity:1;stroke-miterlimit:10;" d="M 106.847656 125.742188 L 104.714844 100.222656 "/>
<path style="fill:none;stroke-width:1.2;stroke-linecap:butt;stroke-linejoin:miter;stroke:rgb(0%,0%,0%);stroke-opacity:1;stroke-miterlimit:10;" d="M 104.714844 100.222656 L 125.753906 85.617188 "/>
<path style="fill:none;stroke-width:1.2;stroke-linecap:butt;stroke-linejoin:miter;stroke:rgb(0%,0%,0%);stroke-opacity:1;stroke-miterlimit:10;" d="M 110.257812 103.710938 L 127.085938 92.027344 "/>
<path style="fill:none;stroke-width:1.2;stroke-linecap:butt;stroke-linejoin:miter;stroke:rgb(0%,0%,0%);stroke-opacity:1;stroke-miterlimit:10;" d="M 125.753906 85.617188 L 148.917969 96.53125 "/>
<path style="fill:none;stroke-width:1.2;stroke-linecap:butt;stroke-linejoin:miter;stroke:rgb(0%,0%,0%);stroke-opacity:1;stroke-miterlimit:10;" d="M 148.917969 96.53125 L 151.050781 122.050781 "/>
<path style="fill:none;stroke-width:1.2;stroke-linecap:butt;stroke-linejoin:miter;stroke:rgb(0%,0%,0%);stroke-opacity:1;stroke-miterlimit:10;" d="M 143.128906 99.585938 L 144.832031 120 "/>
<path style="fill:none;stroke-width:1.2;stroke-linecap:butt;stroke-linejoin:miter;stroke:rgb(0%,0%,0%);stroke-opacity:1;stroke-miterlimit:10;" d="M 148.917969 96.53125 L 169.953125 81.925781 "/>
<path style="fill:none;stroke-width:1.2;stroke-linecap:butt;stroke-linejoin:miter;stroke:rgb(0%,0%,100%);stroke-opacity:1;stroke-miterlimit:10;" d="M 155.308594 173.089844 L 165.828125 165.789062 "/>
<path style="fill:none;stroke-width:1.2;stroke-linecap:butt;stroke-linejoin:miter;stroke:rgb(0%,0%,0%);stroke-opacity:1;stroke-miterlimit:10;" d="M 165.828125 165.789062 L 176.347656 158.484375 "/>
<path style=" stroke:none;fill-rule:nonzero;fill:rgb(100%,100%,100%);fill-opacity:1;" d="M 147.308594 166.589844 L 164.308594 166.589844 L 164.308594 179.589844 L 147.308594 179.589844 Z M 147.308594 166.589844 "/>
<g style="fill:rgb(0%,0%,100%);fill-opacity:1;">
  <use xlink:href="#glyph0-2" x="147.308594" y="176.491211"/>
  <use xlink:href="#glyph0-3" x="155.291992" y="176.491211"/>
</g>
<path style="fill:none;stroke-width:1.2;stroke-linecap:butt;stroke-linejoin:miter;stroke:rgb(0%,0%,0%);stroke-opacity:1;stroke-miterlimit:10;" d="M 179.347656 158.234375 L 178.28125 145.476562 "/>
<path style="fill:none;stroke-width:1.2;stroke-linecap:butt;stroke-linejoin:miter;stroke:rgb(100%,0%,0%);stroke-opacity:1;stroke-miterlimit:10;" d="M 178.28125 145.476562 L 177.21875 132.714844 "/>
<path style="fill:none;stroke-width:1.2;stroke-linecap:butt;stroke-linejoin:miter;stroke:rgb(0%,0%,0%);stroke-opacity:1;stroke-miterlimit:10;" d="M 173.34375 158.738281 L 172.277344 145.976562 "/>
<path style="fill:none;stroke-width:1.2;stroke-linecap:butt;stroke-linejoin:miter;stroke:rgb(100%,0%,0%);stroke-opacity:1;stroke-miterlimit:10;" d="M 172.277344 145.976562 L 171.214844 133.21875 "/>
<path style="fill:none;stroke-width:1.2;stroke-linecap:butt;stroke-linejoin:miter;stroke:rgb(0%,0%,0%);stroke-opacity:1;stroke-miterlimit:10;" d="M 176.347656 158.484375 L 187.929688 163.945312 "/>
<path style="fill:none;stroke-width:1.2;stroke-linecap:butt;stroke-linejoin:miter;stroke:rgb(100%,0%,0%);stroke-opacity:1;stroke-miterlimit:10;" d="M 187.929688 163.945312 L 199.511719 169.402344 "/>
<path style=" stroke:none;fill-rule:nonzero;fill:rgb(100%,100%,100%);fill-opacity:1;" d="M 170.214844 126.464844 L 179.214844 126.464844 L 179.214844 139.464844 L 170.214844 139.464844 Z M 170.214844 126.464844 "/>
<g style="fill:rgb(100%,0%,0%);fill-opacity:1;">
  <use xlink:href="#glyph0-1" x="170.214844" y="136.366211"/>
</g>
<path style="fill:none;stroke-width:1.2;stroke-linecap:butt;stroke-linejoin:miter;stroke:rgb(100%,0%,0%);stroke-opacity:1;stroke-miterlimit:10;" d="M 199.511719 169.402344 L 210.03125 162.097656 "/>
<path style="fill:none;stroke-width:1.2;stroke-linecap:butt;stroke-linejoin:miter;stroke:rgb(0%,0%,0%);stroke-opacity:1;stroke-miterlimit:10;" d="M 210.03125 162.097656 L 220.546875 154.796875 "/>
<path style=" stroke:none;fill-rule:nonzero;fill:rgb(100%,100%,100%);fill-opacity:1;" d="M 195.511719 162.902344 L 204.511719 162.902344 L 204.511719 175.902344 L 195.511719 175.902344 Z M 195.511719 162.902344 "/>
<g style="fill:rgb(100%,0%,0%);fill-opacity:1;">
  <use xlink:href="#glyph0-1" x="195.511719" y="172.803711"/>
</g>
<path style="fill:none;stroke-width:1.2;stroke-linecap:butt;stroke-linejoin:miter;stroke:rgb(0%,0%,0%);stroke-opacity:1;stroke-miterlimit:10;" d="M 220.546875 154.796875 L 243.714844 165.710938 "/>
<path style="fill:none;stroke-width:1.2;stroke-linecap:butt;stroke-linejoin:miter;stroke:rgb(0%,0%,0%);stroke-opacity:1;stroke-miterlimit:10;" d="M 220.296875 161.339844 L 238.828125 170.070312 "/>
<path style="fill:none;stroke-width:1.2;stroke-linecap:butt;stroke-linejoin:miter;stroke:rgb(0%,0%,0%);stroke-opacity:1;stroke-miterlimit:10;" d="M 243.714844 165.710938 L 264.75 151.105469 "/>
</g>
</svg>

<svg xmlns="http://www.w3.org/2000/svg" xmlns:xlink="http://www.w3.org/1999/xlink" width="300pt" height="300pt" viewBox="0 0 300 300"><defs><symbol overflow="visible"><path d="M.547 1.938V-7.75h5.5v9.688zm.625-.61h4.266v-8.47H1.171zm0 0"/></symbol><symbol overflow="visible" id="a"><path d="M4.328-7.28c-.78 0-1.406.296-1.875.89-.46.585-.687 1.382-.687 2.39 0 1.012.226 1.813.687 2.406.47.586 1.094.875 1.875.875.79 0 1.414-.288 1.875-.874.457-.593.688-1.394.688-2.406 0-1.008-.23-1.805-.687-2.39-.46-.594-1.086-.89-1.875-.89zm0-.892c1.125 0 2.024.383 2.703 1.14C7.708-6.28 8.048-5.27 8.048-4c0 1.262-.34 2.273-1.016 3.03C6.353-.22 5.454.157 4.33.157S2.3-.22 1.625-.97c-.668-.75-1-1.757-1-3.03 0-1.27.332-2.28 1-3.03.676-.76 1.578-1.142 2.703-1.142zm0 0"/></symbol><symbol overflow="visible" id="b"><path d="M1.078-8.016h1.47l3.546 6.704v-6.704h1.062V0H5.688L2.124-6.703V0H1.078zm0 0"/></symbol><symbol overflow="visible" id="c"><path d="M1.078-8.016h1.094v3.282H6.11v-3.282h1.077V0H6.11v-3.813H2.17V0H1.078zm0 0"/></symbol></defs><g><path fill="#fff" d="M0 0h300v300H0z"/><path d="M35.25 130.79l25.602.55M60.852 131.34l6.164 11.222" stroke-width="1.2" stroke="#000" stroke-miterlimit="10" fill="none"/><path d="M67.016 142.563l6.164 11.222M73.18 153.785l12.8.274" stroke-width="1.2" stroke="#f00" stroke-miterlimit="10" fill="none"/><path d="M85.98 154.06l12.8.276" stroke-width="1.2" stroke="#000" stroke-miterlimit="10" fill="none"/><path d="M69.18 147.285h9v13h-9zm0 0" fill="#fff"/><use xlink:href="#a" x="69.18" y="157.187" fill="#f00"/><path d="M101.66 155.227l2.238-7.223" stroke-width="1.2" stroke="#000" stroke-miterlimit="10" fill="none"/><path d="M103.898 148.004l2.24-7.223" stroke-width="1.2" stroke="#f00" stroke-miterlimit="10" fill="none"/><path d="M95.906 153.44l2.24-7.22" stroke-width="1.2" stroke="#000" stroke-miterlimit="10" fill="none"/><path d="M98.145 146.22l2.238-7.22" stroke-width="1.2" stroke="#f00" stroke-miterlimit="10" fill="none"/><path d="M111.11 176.78l-8.368-24.62-7.922 4.348zm0 0"/><path d="M99.262 133.39h9v13h-9zm0 0" fill="#fff"/><use xlink:href="#a" x="99.262" y="143.292" fill="#f00"/><path d="M111.11 176.78l-23.614 9.915M111.11 176.78l21.035-14.604M127.832 196.176L111.11 176.78M87.496 186.695l2.13 25.52M89.625 212.215l24.93 5.86M114.555 218.074l13.277-21.898M128.082 199.18l12.762-1.067" stroke-width="1.2" stroke="#000" stroke-miterlimit="10" fill="none"/><path d="M140.844 198.113l12.758-1.066" stroke-width="1.2" stroke="#f00" stroke-miterlimit="10" fill="none"/><path d="M127.582 193.172l12.758-1.063" stroke-width="1.2" stroke="#000" stroke-miterlimit="10" fill="none"/><path d="M140.34 192.11l12.762-1.067" stroke-width="1.2" stroke="#f00" stroke-miterlimit="10" fill="none"/><path d="M149.352 187.543h9v13h-9zm0 0" fill="#fff"/><use xlink:href="#a" x="149.352" y="197.444" fill="#f00"/><path d="M132.145 162.176l-2.133-25.52M132.145 162.176l11.582 5.457" stroke-width="1.2" stroke="#000" stroke-miterlimit="10" fill="none"/><path d="M143.727 167.633l11.582 5.457" stroke-width="1.2" stroke="#00f" stroke-miterlimit="10" fill="none"/><path d="M130.012 136.656l-23.164-10.914M130.266 130.113l-18.536-8.73M151.05 122.05l-21.038 14.606M106.848 125.742l-2.133-25.52M104.715 100.223l21.04-14.606M110.258 103.71l16.828-11.683M125.754 85.617l23.164 10.914M148.918 96.53l2.133 25.52M143.13 99.586L144.83 120M148.918 96.53l21.035-14.604" stroke-width="1.2" stroke="#000" stroke-miterlimit="10" fill="none"/><path d="M155.31 173.09l10.518-7.3" stroke-width="1.2" stroke="#00f" stroke-miterlimit="10" fill="none"/><path d="M165.828 165.79l10.52-7.306" stroke-width="1.2" stroke="#000" stroke-miterlimit="10" fill="none"/><path d="M147.31 166.59h17v13h-17zm0 0" fill="#fff"/><g fill="#00f"><use xlink:href="#b" x="147.309" y="176.491"/><use xlink:href="#c" x="155.292" y="176.491"/></g><path d="M179.348 158.234l-1.067-12.757" stroke-width="1.2" stroke="#000" stroke-miterlimit="10" fill="none"/><path d="M178.28 145.477l-1.06-12.762" stroke-width="1.2" stroke="#f00" stroke-miterlimit="10" fill="none"/><path d="M173.344 158.738l-1.067-12.76" stroke-width="1.2" stroke="#000" stroke-miterlimit="10" fill="none"/><path d="M172.277 145.977l-1.062-12.758" stroke-width="1.2" stroke="#f00" stroke-miterlimit="10" fill="none"/><path d="M176.348 158.484l11.582 5.46" stroke-width="1.2" stroke="#000" stroke-miterlimit="10" fill="none"/><path d="M187.93 163.945l11.582 5.457" stroke-width="1.2" stroke="#f00" stroke-miterlimit="10" fill="none"/><path d="M170.215 126.465h9v13h-9zm0 0" fill="#fff"/><use xlink:href="#a" x="170.215" y="136.366" fill="#f00"/><path d="M199.512 169.402l10.52-7.304" stroke-width="1.2" stroke="#f00" stroke-miterlimit="10" fill="none"/><path d="M210.03 162.098l10.517-7.3" stroke-width="1.2" stroke="#000" stroke-miterlimit="10" fill="none"/><path d="M195.512 162.902h9v13h-9zm0 0" fill="#fff"/><use xlink:href="#a" x="195.512" y="172.804" fill="#f00"/><path d="M220.547 154.797l23.168 10.914M220.297 161.34l18.53 8.73M243.715 165.71l21.035-14.605" stroke-width="1.2" stroke="#000" stroke-miterlimit="10" fill="none"/></g></svg>
